packages/kaspersky-hexa-ui-icons/src/iconsSVGs/24/MailBox.svg

<svg xmlns="http://www.w3.org/2000/svg" width="24" height="24" fill="none" viewBox="0 0 24 24"><path fill="#000" fill-rule="evenodd" d="M7 3C4.7909 3 3 4.7909 3 7v10c0 2.2091 1.7909 4 4 4h10c2.2091 0 4-1.7909 4-4V7c0-2.2091-1.7909-4-4-4zm12 10V7c0-1.1046-.8954-2-2-2H7c-1.1046 0-2 .8954-2 2v6h5c.5523 0 1 .4477 1 1s.4477 1 1 1 1-.4477 1-1 .4477-1 1-1zM5 15h4.1707c.4118 1.1652 1.5231 2 2.8293 2s2.4175-.8348 2.8293-2H19v2c0 1.1046-.8954 2-2 2H7c-1.1046 0-2-.8954-2-2z"/></svg>

<svg width="24" height="24" viewBox="0 0 24 24" fill="none" xmlns="http://www.w3.org/2000/svg">
<path fill-rule="evenodd" clip-rule="evenodd" d="M7 3C4.79086 3 3 4.79086 3 7V17C3 19.2091 4.79086 21 7 21H17C19.2091 21 21 19.2091 21 17V7C21 4.79086 19.2091 3 17 3H7ZM19 13V7C19 5.89543 18.1046 5 17 5H7C5.89543 5 5 5.89543 5 7V13H10C10.5523 13 11 13.4477 11 14C11 14.5523 11.4477 15 12 15C12.5523 15 13 14.5523 13 14C13 13.4477 13.4477 13 14 13H19ZM5 15H9.17071C9.58254 16.1652 10.6938 17 12 17C13.3062 17 14.4175 16.1652 14.8293 15H19V17C19 18.1046 18.1046 19 17 19H7C5.89543 19 5 18.1046 5 17V15Z" fill="black"/>
</svg>
